!!!COM: Fux, Johann Joseph
!!!OMD: Gradus ad Parnassum Exercise
!!!YEC: CC0 1.0 Universal (Public Domain). Mark Gotham and FourScoreAndMore.org waive all rights to this document.
**kern	**kern	**kern
*part3	*part2	*part1
*staff3	*staff2	*staff1
*I"3	*I"2	*I"1
*I'Pno	*I'Pno	*I'Pno
!!LO:LB:g=z
*clefGv2	*clefG2	*clefG2
*k[]	*k[]	*k[]
!!LO:TX:omd:t=
*M4/4	*M4/4	*M4/4
=12	=12	=12
!	!	!LO:TX:a:t=Fig. 104; Species&colon; 1; Modal final&colon; d; Cantus firmus&colon; 2
1D	1d	1f
=13	=13	=13
1D	1f	1a
=14	=14	=14
1E	1e	1cc
=15	=15	=15
1G	1d	1b
=16	=16	=16
1E	1g	1b
=17	=17	=17
1D	1f	1dd
=18	=18	=18
1F	1a	1cc
=19	=19	=19
1C	1g	1ee
=20	=20	=20
1D	1f	1dd
=21	=21	=21
1A	1e	1cc#X
=22	=22	=22
1D	1d	1dd
==	==	==
*-	*-	*-
!!!software: music21 v.9.7.1
!!!software: music21 v.9.7.1
!!!software: MuseScore 3.4.2
!!!RDF**kern: > = above
!!!RDF**kern: < = below
